X:1
T:Préludes - Book I - VI
T:... Des pas sur la neige
T:Claude Debussy
%%score { ( 1 5 ) | ( 2 3 4 ) }
L:1/8
Q:1/4=44
M:4/4
K:F
V:1 treble nm="Piano"
V:5 treble 
V:2 treble 
V:3 treble 
V:4 treble 
V:1
 z8 | z2 (!tenuto!B4 cd) | z2 (!tenuto!e2 (3dcB G2- | G2!>(! c2 A4)!>)! | %4
 z2 (!tenuto!A2 z2 !tenuto!=B2 | z2 !tenuto!c2 z2 .d.e- | e2!>(! (3cAG .E2 .C2)!>)! | %7
!pp! (3:2:2(D/E-)E- E2 (3:2:2E/F-F- F2 | (3:2:2D/E-E- E2 (3:2:2E/F-F- F2 | %9
 (3:2:2(D/E-)E- E2 (3:2:2E/F-F- F2 | (3:2:2(D/E-)E- E2 (3:2:2E/F-F- F2- | [_G,B,F]7 !>![G,B,F]- | %12
[M:2/4]!>(! [G,B,F]4!>)! |[M:4/4] z2 (.[Ee]2 z2 .[_A_a]2) | x8 | %15
!pp! (3:2:2(D/E-)E- E2 (3:2:2(E/F-)F- F2 | z2!>(! (!tenuto!c4 _A2)!>)! | %17
 z2!<(! (!tenuto!e2- (3edc _A2)!<)! | z2!>(! (e2 (3dcB .G!pp!.A)!>)! | %19
 z2 (!tenuto!A2 z2 !tenuto!=B2) | z2!p! (._c2 z2 _ec- | c_dB_A) z2!<(! (_e_c- | %22
 c_d_ef-!<)! f2 !tenuto!_af- | f) z (!tenuto!f_d-) d z (dB- | B2 _A4 F2) | %25
!pp! (3:2:2(D/E-)E- E2 (3:2:2(E/F-)F- F2 | (3:2:2(D/E-)E- E2 (3:2:2(E/F-)F- F2 | %27
 z6!p! (3:2:2(D/E-)E- E2 z2 _e_c- | c_dB_A- A2!<(! (_e_c- | c_d_ef-)!<)! f2!p! (!tenuto!_c'_a-) | %30
 a z!>(! (!tenuto!_af-)!>)! f z f2 | (3:2:2=d'/[ee']-[ee']- [ee']2 (3:2:2e'/[ff']-[ff']- [ff']2 | %32
!>(! (3:2:2d'/e'-!>)![ee']- [ee']2!>(! (3:2:2e'/f'-[ff']-!>)! [ff']2- | [ff']6 z2 | z8 | %35
!ppp! !fermata![fd'f']8 |] %36
V:2
!<(! (3:2:2(D/E-)!<)!!>(!E- E2!>)!!<(! (3:2:2(E/F-)!<)!!>(!F- F2!>)! | %1
!pp!!>(! (3:2:2(D/E-)!>)!!p!E- E2!>(! (3:2:2(E/F-)F-!>)! F2 | (3:2:2(D/E-)E- E2 (3:2:2(E/F-)F- F2 | %3
 (3:2:2(D/E-)E- E2 (3:2:2(E/F-)F- F2 |[K:bass] (3:2:2(D/E-)E- E2 (3:2:2(E/F-)F- F2 | %5
 (3:2:2(D/E-)E- E2 (3:2:2(E/(F-)F- F2- | [A,F]) x x6 | (C,4 ^C,4) | (C,4 ^C,4) | %9
 z2 (A,2 _A,2 _D,2) | F,4 x4 | (_D,!tenuto!_E,- E,C,!<(! (3B,,_A,,C, D,(!tenuto!E,)!<)! | %12
[M:2/4] (_E,)C, (3B,,_A,,C,-) |[M:4/4]!pp!!>(! C,8-!>)! | C,2 z2 z4 | z2 (G,2 _A,2 B,2) | %16
[K:treble]!pp! (3:2:2(D/E-)E- E2 (3:2:2(E/F-)F- F2 | (3:2:2(D/E-)E- E2 (3:2:2(E/F-)F- F2 | %18
 x2 E2 x2 F2 |[K:bass] (3:2:2(D/E-)E- E2 (3:2:2(E/F-)F- F2 | (3:2:2(D/E-)E- E2 (3:2:2(E/F-)F- F2 | %21
 (3:2:2(E/F-)F- F2!pp! (3:2:2(E/F-)F- F2 | (3:2:2(E/F-)F- F2 (3:2:2(E/F-)F- F2 | %23
 (3:2:2(E/F-)F- F2 (3:2:2(E/F-)F- F2- | F2 z2 z4 | [G,B,D]4 [_G,=A,_D]4 | %26
 (C2 =B,2 A,2 !tenuto!C2- | C2 =B,2) (3:2:2(E/F-)F- F2- x6 | %28
 (F3[K:treble] [_C_E_A] [B,_D_G][DFB] [_A,CF]2 | [B,D_G]2 [_CE_A]2 [DFB]2 [EG_c]2 | %30
 [F_A_d]2 [A_c_e]2 [df_a]2!>(! (!tenuto!f)d)!>)! | d4 d4 | !tenuto!d4 !tenuto!d4- | %33
 [Bd]6[K:bass] z2 | .D,2 .G,,2 .D,,2 .G,,,2 | !fermata![D,,,A,,,]8 |] %36
V:3
 !tenuto!D4 !tenuto!D4 | !tenuto!D4 !tenuto!D4 | !tenuto!D4 !tenuto!D4 | !tenuto!D4 !tenuto!D4 | %4
[K:bass] =B,4 A,4 | G,4 A,4- | A, z z2 z4 | (^F,,2 G,,2 ^G,,2 ^C,,2) | (^F,,2 G,,2 ^G,,2 ^C,2) | %9
 x8 | z2!<(! (_A,,G,, !tenuto!_D,4)!<)! | x8 |[M:2/4] x4 | %13
[M:4/4] (3:2:2(^F,,/C,,-)C,,- C,,2!>(! (3:2:2(F,,/C,,-)!>)!C,,- (C,,2- | C,,4 =B,,,2 ._B,,,2) | %15
 x8 |[K:treble] D4 D4 | D4 D4 | (D/E-)E x3/2 (E/F-)F x3/2 |[K:bass] =B,4 A,4 | G,4 [F,_C]4 | %21
 [_A,_C]4 [F,C]4 | [_A,_C]4 [_G,=C]4 | [G,_D]4 [_A,=D]4- | [A,D]2 z2 z4 | x8 | %26
 [F,^G,]4 [D,,A,,F,]4 | [F,_A,-]4 [A,_C]4- x6 | [A,C]3[K:treble] z z4 | x8 | x8 | %31
 z2!>(! (.^c.B)!>)! z2!>(! (.B.G)!>)! | z2!>(! (.^c.B)!>)! z2!>(! (.B.G-)!>)! | %33
 G4 .D2[K:bass] .G,2 | x8 | x8 |] %36
V:4
 x8 | x8 | x8 | x8 |[K:bass] ([G,,D,]4 [F,,C,]4 | [E,,=B,,]4 [D,,A,,F,]4-) | [D,,A,,F,] x z2 z4 | %7
 x8 | x8 | x8 | x8 | x8 |[M:2/4] x4 |[M:4/4] x8 | x8 | x8 |[K:treble] z2 (G,2 _A,2 B,2) | %17
 z2 (G,2 _A,2 B,2) | !tenuto!D4 !tenuto!D4 |[K:bass] ([G,,D,]4 [F,,C,]4 | %20
 [E,,=B,,]4 [_D,,_A,,]4-) | [D,,A,,]4 ([_D,,_A,,]4- | [D,,A,,]4 =D,,4 | _E,,4 =E,,4-) | E,,2 x6 | %25
 x8 | x8 | x14 | x3[K:treble] x5 | x8 | x8 | x8 | x8 | x6[K:bass] x2 | x8 | x8 |] %36
V:5
 x8 | x8 | x8 | x8 | x8 | x8 | x8 | B,4 =B,4 | B,4 =B,4 | [B,D]4 [_C_D]4 | C2 B,2 [_G,B,]4 | x8 | %12
[M:2/4] x4 |[M:4/4] [=E,B,^F]8- | [=E,B,F]2 z2 z4 | !tenuto!D4 !tenuto!D4 | x8 | x8 | x8 | x8 | %20
 x8 | x8 | x8 | x8 | x8 | D4 x4 | D4 x4 | x14 | x8 | x8 | x6 [_a_d']2 | %31
 (3:2:2d/e x x2 (3:2:2e/f x x2 | (3:2:2d/e-e x2 (3:2:2e/f-f x2 | x8 | x8 | x8 |] %36

